outputs/icons/content/copy_file_round.svg

<svg xmlns="http://www.w3.org/2000/svg" width="1200" height="1200" fill="none"><g clip-path="url(#a)"><path fill="#000" d="M750 50H200c-55 0-100 45-100 100v650c0 27.5 22.5 50 50 50s50-22.5 50-50V200c0-27.5 22.5-50 50-50h500c27.5 0 50-22.5 50-50s-22.5-50-50-50m29.5 229.5L1021 521c18.5 18.5 29 44 29 70.5V1050c0 55-45 100-100 100H399.5c-55 0-99.5-45-99.5-100l.5-700c0-55 44.5-100 99.5-100h308.5c26.5 0 52 10.5 71 29.5M750 600h225L700 325v225c0 27.5 22.5 50 50 50"/></g><defs><clipPath id="a"><path fill="#fff" d="M0 0h1200v1200H0z"/></clipPath></defs></svg>

<svg width="1200" height="1200" viewBox="0 0 1200 1200" fill="none" xmlns="http://www.w3.org/2000/svg"><g clip-path="url(#clip0_225_3306)"><path d="M750 50H200C145 50 100 95 100 150V800C100 827.5 122.5 850 150 850C177.5 850 200 827.5 200 800V200C200 172.5 222.5 150 250 150H750C777.5 150 800 127.5 800 100C800 72.5 777.5 50 750 50ZM779.5 279.5L1021 521C1039.5 539.5 1050 565 1050 591.5V1050C1050 1105 1005 1150 950 1150H399.5C344.5 1150 300 1105 300 1050L300.5 350C300.5 295 345 250 400 250H708.5C735 250 760.5 260.5 779.5 279.5ZM750 600H975L700 325V550C700 577.5 722.5 600 750 600Z" fill="black"/></g><defs><clipPath id="clip0_225_3306"><path width="24" fill="white" d="M0 0H1200V1200H0V0z"/></clipPath></defs></svg>
